X:14
T:Quadriglia
C:Francesco Veroni
C:Balli popolari in Abruzzo II/17
M:6/8
L:1/8
K:G
B Bcd|e2B BAG|D2B BAG|DGA BcB|\
A2A ABc|1 d2A AGF|
E2A AGF|EFG ABA|\
G2:|2 d2c cde|d2d ded|fed cBA|G2||
|:d ded|B2d ded|A2d ded|c2d ded|B2d ded|\
B2d ded|A2d ded|fed cBA|1 G2:|2 G3||
|:DGB |GBd GBd |d2d ded |c2c cBA| B2B DGB|\
GBd GBd |d2d ded |fed cBA|G3:|
|:DEF|GGG edB|d2c EFA|fed def|e2d DEF|\
GGG edB|d2c EFA|fed cBA|G3:|
